X: 42839
T: Wigwam
R: reel
M: 4/4
K: Bminor
F2|:BcBA Bcde|~f2de f2f2|b2f2 g3a|gfed cdcA|
BcBA Bcde|~f2de f2f2|b2f2 g3f|edcA B4:|
K: Dmaj
|:A2FA d2Ad|f2df a3f|~g2ec Aceg|b2ab a^ga2|
A2FA d2Ad|f2df a3f|~g2ec Aceg|1 f2ec d2B2:|2 f2ec d2F2||

